archdroid-icon-theme/Archdroid-Blue/actions/scalable/system-shutdown-restart-panel.svg

<?xml version="1.0" encoding="UTF-8" standalone="no"?>
<svg
   xmlns:dc="http://purl.org/dc/elements/1.1/"
   xmlns:cc="http://creativecommons.org/ns#"
   xmlns:rdf="http://www.w3.org/1999/02/22-rdf-syntax-ns#"
   xmlns:svg="http://www.w3.org/2000/svg"
   xmlns="http://www.w3.org/2000/svg"
   xmlns:sodipodi="http://sodipodi.sourceforge.net/DTD/sodipodi-0.dtd"
   xmlns:inkscape="http://www.inkscape.org/namespaces/inkscape"
   fill="#2196F3"
   width="48"
   height="48"
   viewBox="0 0 48 48"
   id="svg2"
   version="1.1"
   inkscape:version="0.91 r13725"
   sodipodi:docname="system-shutdown-restart-panel.svg">
  <metadata
     id="metadata10">
    <rdf:RDF>
      <cc:Work
         rdf:about="">
        <dc:format>image/svg+xml</dc:format>
        <dc:type
           rdf:resource="http://purl.org/dc/dcmitype/StillImage" />
        <dc:title></dc:title>
      </cc:Work>
    </rdf:RDF>
  </metadata>
  <defs
     id="defs8" />
  <sodipodi:namedview
     pagecolor="#ffffff"
     bordercolor="#666666"
     borderopacity="1"
     objecttolerance="10"
     gridtolerance="10"
     guidetolerance="10"
     inkscape:pageopacity="0"
     inkscape:pageshadow="2"
     inkscape:window-width="1366"
     inkscape:window-height="713"
     id="namedview6"
     showgrid="false"
     inkscape:snap-bbox="true"
     inkscape:bbox-paths="false"
     inkscape:bbox-nodes="false"
     inkscape:snap-bbox-edge-midpoints="false"
     inkscape:snap-bbox-midpoints="true"
     inkscape:snap-object-midpoints="true"
     inkscape:snap-center="true"
     inkscape:zoom="6.9532167"
     inkscape:cx="15.299172"
     inkscape:cy="8.8304224"
     inkscape:window-x="0"
     inkscape:window-y="30"
     inkscape:window-maximized="1"
     inkscape:current-layer="svg2" />
  <path
     d="m 14,48 4,0 0,-4 -4,0 0,4 z"
     id="path4159" />
  <path
     d="m 22,48 4,0 0,-4 -4,0 0,4 z"
     id="path4157" />
  <path
     d="m 30,48 4,0 0,-4 -4,0 0,4 z"
     id="path4" />
  <path
     id="path4140"
     style="fill:#2196F3"
     d="M 24,6.9999999 C 14.612222,6.9999999 6.9999996,14.612222 6.9999996,24 L 1.3333329,24 8.8888884,31.555556 16.444445,24 10.777778,24 c 0,-7.300555 5.921667,-13.222222 13.222222,-13.222222 7.300556,0 13.222223,5.921667 13.222223,13.222222 0,7.300556 -5.921667,13.222222 -13.222223,13.222222 -2.861666,0 -5.496666,-0.916111 -7.668889,-2.465 l -2.672777,2.710556 C 16.529445,39.677778 20.108889,41 24,41 33.387778,41 41,33.387778 41,24 41,14.612222 33.387778,6.9999999 24,6.9999999 Z M 27.777778,24 c 0,-2.087222 -1.690555,-3.777778 -3.777778,-3.777778 -2.087222,0 -3.777778,1.690556 -3.777778,3.777778 0,2.087222 1.690556,3.777778 3.777778,3.777778 2.087223,0 3.777778,-1.690556 3.777778,-3.777778 z"
     inkscape:connector-curvature="0" />
</svg>

<svg xmlns="http://www.w3.org/2000/svg" fill="#2196F3" viewBox="0 0 48 48"><path d="m14 48h4v-4h-4v4"/><path d="m22 48h4v-4h-4v4"/><path d="m30 48h4v-4h-4v4"/><path d="m24 7c-9.388 0-17 7.612-17 17h-5.667l7.556 7.556 7.556-7.556h-5.667c0-7.301 5.922-13.222 13.222-13.222 7.301 0 13.222 5.922 13.222 13.222 0 7.301-5.922 13.222-13.222 13.222-2.862 0-5.497-.916-7.669-2.465l-2.673 2.711c2.871 2.21 6.451 3.532 10.342 3.532 9.388 0 17-7.612 17-17 0-9.388-7.612-17-17-17m3.778 17c0-2.087-1.691-3.778-3.778-3.778-2.087 0-3.778 1.691-3.778 3.778 0 2.087 1.691 3.778 3.778 3.778 2.087 0 3.778-1.691 3.778-3.778z"/></svg>
